X: 18775
T: If I Was A Blackbird
R: waltz
M: 3/4
K: Bminor
fe|"Bm"f2 B3 c|"G"BA F3 E|"A"A3 B cd|"Bm"B4 Bc|"Bm"d3 e f2|
"D"a f3 a2|"G"b3 a fe|"A"f4 fe|"Bm"d3 e f2|"A"a f3 a2|
"G"b3 a fe|"A"f4 fe|"Bm"f2 B3 c|"F#m"BA F3 E|"G"A3 B "A"cd|"Bm"B4||

